X:1
T:Title
%%score { ( 1 3 5 ) | ( 2 4 ) }
L:1/8
M:4/4
K:Db
V:1 treble nm="Grand Piano"
V:3 treble 
V:5 treble 
V:2 bass 
V:4 bass 
V:1
 z4 z2[Q:1/4=100] [DF]>[EG] | [FA]2 [FA]2 [_FB]2 [=FA]2 | [Fd]6 c>B | A6 z2 |[M:3/4] E6 | %5
[M:1/4] [A,DF]>[A,EG] |[M:4/4] [DFA]2 [A,FA]2 [_FB]2 [=FA]2 | [Fd]6 (3FAd | [Ec]6 z2 | d6 z2 | %10
 [FA]<[FA] F>F F2 A>G | F<F D>D D2 E>F | [EG-]4 G2 [DF]2 | [FA]6 z2 | [FA]<[FA] F>F F2 B,>C | %15
 B<B G>G G2 A>B | z4 z z/ A/ [GB]>[Gc] |[M:3/4] d6 |] %18
V:2
 z4 z2 [D,A,]>[D,A,] | [D,D]2 [D,A,]2 [D,=G,]2 [D,A,]2 | [D,A,]6[K:treble] A>G | F6[K:bass] z2 | %4
[M:3/4] C6 |[M:1/4] D,>D, |[M:4/4] D,2 D,2 [D,=G,]2 [D,A,]2 | [D,A,]6 z2 | %8
 [A,,A,]2 A,,2 z z/ F/ [A,,A,]2 | [D,A,]>[D,=G,] [D,A,]>[D,B,] [D,A,]2 z2 | %10
 [D,D]<[D,D] [D,A,]>[D,A,] [D,A,]2 z2 | [D,A,D]<[D,A,D] [D,F,]>[D,F,] [D,F,]2 z2 | %12
 z B, A,,2 z z/ C/ z z/ G/ | D,>D, D,>D, D,2 z2 | [D,D]<[D,D] [D,A,]>[D,A,] [D,A,]2 z2 | %15
 [G,DG]<[G,DG] [G,B,]>[G,B,] [G,B,]2 z2 | A,2 A,2 z z/ F/ [A,,A,]2 | %17
[M:3/4] [D,A,]>[D,=G,] [D,A,]>[D,B,] [D,A,]2 |] %18
V:3
 x8 | x8 | x8 | z2 D>D A,2 G>F |[M:3/4] z2 A,>A, A,2 |[M:1/4] x2 |[M:4/4] x8 | x8 | %8
 z2 A,2 z z/ A/ [GB]>[Gc] | F>_F =F>G F2 z2 | x8 | x8 | .A,2 CD E>E C->[CB] | D>D D>D D2 z2 | x8 | %15
 x8 | [Ec]6 z2 |[M:3/4] F>_F =F>G F2 |] %18
V:4
 x8 | x8 | x6[K:treble] x2 | z2[K:bass] D,>D, D,2 E>D |[M:3/4] z2 A,,>A,, A,,2 |[M:1/4] x2 | %6
[M:4/4] x8 | x8 | z4 A,,2 z2 | x8 | x8 | x8 | A,,2 z2 A,,2 A,,2 | x8 | x8 | x8 | z4 A,,2 z2 | %17
[M:3/4] x6 |] %18
V:5
 x8 | x8 | x8 | x8 |[M:3/4] x6 |[M:1/4] x2 |[M:4/4] x8 | x8 | z4 A,2 z2 | x8 | x8 | x8 | x8 | x8 | %14
 x8 | x8 | z4 A,2 z2 |[M:3/4] x6 |] %18

